X: 29054
T: Neil Gow's Lamentation For James Moray Esq. Of Abercairny
R: strathspey
M: 4/4
K: Gmajor
{C/}B,/>A,/||G,>B,DG EGDG|~A>B c/B/A/G/ {F/}E2 EF/G/|G,>B,DG EG Dg/e/|dG d/c/B/A/ {A/}G2 GB,/A,/|
G,>B,DG EGDG|~A>B c/B/A/G/ E2 EF/G/|G,>B,DG EG Dg/e/|dG d/c/B/A/ {A/}G2 G||
e|de/f/ gd edgB|~ca/c/ ~Bg/B/ {B/}A2 A>B|G,>B,DG EG Dg/e/|dG d/c/B/A/ {A/}G2 G>e|
~de/f/ gd {f/}edgB|Tc/B/c/a/ TB/A/B/g/ {B/}[F2A2] [FA]B/c/|e/d/.c/.B/ d/c/B/A/ c/B/A/G/ B/A/G/F/|A/G/F/E/ D/E/D/B,/ G,2 G,||

